svgs/github.svg

<svg width="192" height="192" viewBox="0 0 192 192" fill="none" xmlns="http://www.w3.org/2000/svg">
<path d="M120.755 170C120.785 165.331 120.814 149.126 120.814 142.71C120.814 133.438 117.647 127.371 114.095 124.3C136.146 121.836 159.296 113.437 159.296 75.2331C159.296 64.378 155.472 55.4981 149.121 48.5502C150.138 46.0342 153.534 35.9191 148.134 22.2298C148.134 22.2298 139.838 19.5584 120.932 32.4337C113.02 30.2212 104.561 29.1261 96.1477 29.0817C87.7341 29.1261 79.2756 30.2212 71.3631 32.4337C52.4574 19.5584 44.1617 22.2298 44.1617 22.2298C38.7613 35.9191 42.1578 46.0342 43.1745 48.5501C36.8236 55.4981 32.9999 64.378 32.9999 75.2331C32.9999 113.437 56.1489 121.836 78.2 124.3C74.6488 127.371 71.481 133.438 71.481 142.71C71.481 149.126 71.5105 165.331 71.54 170M27 130C36.9388 130.703 42.6699 139.735 42.6699 139.735C51.5035 154.934 65.8483 150.538 71.4848 148" stroke="black" stroke-width="12" stroke-linecap="round" stroke-linejoin="round"/>
</svg>

<svg width="192" height="192" fill="none" xmlns="http://www.w3.org/2000/svg"><path d="M120.755 170c.03-4.669.059-20.874.059-27.29 0-9.272-3.167-15.339-6.719-18.41 22.051-2.464 45.201-10.863 45.201-49.067 0-10.855-3.824-19.735-10.175-26.683 1.017-2.516 4.413-12.63-.987-26.32 0 0-8.296-2.672-27.202 10.204-7.912-2.213-16.371-3.308-24.784-3.352-8.414.044-16.872 1.14-24.785 3.352C52.457 19.558 44.162 22.23 44.162 22.23c-5.4 13.69-2.004 23.804-.987 26.32C36.824 55.498 33 64.378 33 75.233c0 38.204 23.149 46.603 45.2 49.067-3.551 3.071-6.719 9.138-6.719 18.41 0 6.416.03 22.621.059 27.29M27 130c9.939.703 15.67 9.735 15.67 9.735 8.834 15.199 23.178 10.803 28.815 8.265" stroke="#000" stroke-width="12" stroke-linecap="round" stroke-linejoin="round"/></svg>
